packages/core/src/svgs/networks/mono/flare.svg

<svg width="24" height="24" viewBox="0 0 24 24" fill="none" xmlns="http://www.w3.org/2000/svg">
<path d="M16.8651 9.5123H6.99864C4.28945 9.50137 2.07086 11.661 2 14.3783C2 14.4494 2.05451 14.5096 2.13083 14.5096H11.9973C14.7065 14.5205 16.925 12.3554 16.9959 9.63806C16.9959 9.56698 16.9359 9.50684 16.8651 9.50684V9.5123Z" fill="white"/>
<path d="M21.8636 2.00004H6.99856C4.28937 1.98911 2.07078 4.15422 2.00537 6.87154C2.00537 6.94262 2.05988 7.00276 2.13075 7.00276H17.0013C19.7105 7.0137 21.929 4.84859 21.9999 2.13126C21.9999 2.06018 21.94 2.00004 21.8691 2.00004H21.8636Z" fill="white"/>
<path d="M4.50204 22C5.88388 22 7.00409 20.8765 7.00409 19.4905C7.00409 18.1045 5.88388 16.9809 4.50204 16.9809C3.1202 16.9809 2 18.1045 2 19.4905C2 20.8765 3.1202 22 4.50204 22Z" fill="white"/>
</svg>

<svg xmlns="http://www.w3.org/2000/svg" width="24" height="24" fill="none" viewBox="0 0 24 24">
    <path fill="#fff" d="M16.865 9.512H7a4.986 4.986 0 0 0-5 4.866.13.13 0 0 0 .13.132h9.867c2.71.01 4.928-2.155 4.999-4.872a.133.133 0 0 0-.13-.131zM21.864 2H6.999a4.983 4.983 0 0 0-4.994 4.872c0 .07.055.13.126.13H17c2.71.012 4.928-2.153 4.999-4.87A.133.133 0 0 0 21.87 2zM4.502 22a2.506 2.506 0 0 0 2.502-2.51c0-1.385-1.12-2.51-2.502-2.51A2.506 2.506 0 0 0 2 19.49C2 20.878 3.12 22 4.502 22"/>
</svg>
